public/icons/repair_icon.svg

<svg width="330" height="330" viewBox="0 0 330 330" fill="none" xmlns="http://www.w3.org/2000/svg">
<path d="M93.7281 37.0182C96.4727 36.8892 99.5567 37.4744 102.281 37.8989C117.299 40.2387 131.19 47.2222 140.228 59.7814C150.837 74.5262 150.923 90.1376 148.264 107.258L176.091 134.4C184.976 125.06 218.567 93.5734 222.88 84.4695C225.529 78.8789 225.912 71.108 227.677 65.0123C234.674 58.399 252.979 41.8592 261.159 38.93C262.248 38.8957 262.9 38.9871 263.877 39.5071C267.707 41.5462 283.872 57.8973 285.102 61.7369C284.869 65.5959 266.767 92.0711 263.471 95.3649C257.058 101.775 246.597 101.35 239.566 107.133C234.753 111.092 230.576 116.672 226.237 121.209C215.745 132.229 205.164 143.165 194.497 154.015L259.67 218.8C267.692 226.827 278.629 235.556 285.026 244.838C288.268 249.491 290.004 255.026 290 260.697C289.907 268.368 286.748 275.682 281.227 281.008C276.489 285.631 270.24 288.464 263.559 288.261C259.058 288.124 254.774 286.632 251.01 284.2C238.958 276.414 212.86 245.694 201.322 233.511L163.069 192.597C161.624 191.067 161.031 191.027 159.025 190.989C156.019 195.143 166.568 201.654 165.273 207.666C164.446 211.508 160.627 215.75 157.493 217.953C152.243 221.641 149.116 218.469 143.901 217.581L142.48 218.738C141.247 222.335 141.61 226.145 141.462 229.921C135.429 240.398 124.022 249.707 115.645 258.387C107.159 267.181 98.8981 276.524 89.9326 284.824C84.5686 289.791 79.7883 292.912 72.1938 292.532C61.8555 292.015 53.7064 283.836 47.2068 276.537C42.2643 270.985 38.5128 265.066 39.0515 257.376C39.3451 253.177 40.702 248.704 43.1045 245.226C47.9271 238.24 90.2147 194.806 97.2248 190.151C101.623 187.23 108.396 189.488 112.367 185.977C112.823 182.516 108.93 180.29 108.792 176.771C108.689 174.143 110.683 172.065 112.371 170.306C128.091 153.931 132.374 172.465 139.342 172.379L139.899 170.903C131.341 160.872 121.796 151.469 112.731 141.882C109.526 142.661 106.205 143.285 102.911 143.516C88.8693 144.503 75.5705 140.588 64.913 131.209C51.1399 119.086 47.7279 103.772 46.6725 86.3033C49.2223 83.177 52.6396 77.9628 56.5021 76.5028C62.2364 78.2194 80.1877 98.1774 85.7254 103.606L108.178 99.3809C109.166 91.9132 110.489 84.5065 111.793 77.0891C102.339 67.3486 93.237 57.2105 84.0185 47.2443C86.6343 43.5034 90.4925 40.2493 93.7281 37.0182Z" fill="black"/>
<path d="M122.831 172.897C128.332 173.769 150.925 199.937 155.516 206.011C155.442 207.62 155.231 207.591 154.15 208.69C150.327 209.926 146.082 207.594 142.158 207.598C139.686 207.6 137.363 208.308 135.672 210.189C131.71 214.593 132.172 221.57 132.648 227.03C116.358 245.844 97.9495 264.106 80.1489 281.535C78.3442 282.382 76.0871 283.096 74.0796 283.21C68.2598 283.541 62.8923 279.339 58.8711 275.572C54.1886 271.188 48.4182 264.895 48.368 258.037C48.3406 254.286 50.1851 251.006 52.3689 248.077C56.823 242.107 62.9761 237.052 68.2334 231.752L102.417 197.346C109.214 197.492 113.267 196.867 118.976 192.836C121.322 191.179 123.316 188.75 123.664 185.817C124.105 182.099 122.037 180.07 119.866 177.349C119.883 175.094 121.284 174.432 122.831 172.897Z" fill="#FED100"/>
<path d="M109.038 209.609C110.089 209.743 111.529 209.813 112.501 210.231C114.276 210.996 114.556 211.807 115.193 213.468C115.091 214.041 115.045 215.204 114.797 215.683C111.724 221.602 74.9026 257.951 67.0779 265.76C65.796 265.61 64.1385 265.268 63.0788 264.508C61.4503 263.339 61.5182 262.334 61.4336 260.536C64.1138 253.569 101.161 217.155 109.038 209.609Z" fill="black"/>
<path d="M118.204 226.704C119.484 227.118 121.067 227.506 122.06 228.451C123.369 229.698 123.184 230.565 123.313 232.271C121.387 238.406 86.1456 273.558 79.803 278.64C79.3648 278.53 78.8226 278.409 78.3844 278.251C76.0824 277.417 75.2387 276.402 74.335 274.299C75.0033 269.205 111.616 233.344 118.204 226.704Z" fill="black"/>
<path d="M188.143 160.519C188.253 160.614 188.363 160.708 188.47 160.806C206.858 177.487 224.072 196.308 241.68 213.901C251.959 224.173 269.147 239.2 277.506 250.543C279.739 253.574 281.087 257.165 281.201 260.952C281.337 265.479 279.518 269.761 276.369 272.979C271.865 277.582 267.313 278.728 261.051 278.788C258.014 277.804 255.724 276.73 253.274 274.657C242.442 265.49 232.869 253.813 223.162 243.461L166.599 182.926C173.886 175.571 181.328 168.317 188.143 160.519Z" fill="#FEFEFE"/>
<path d="M259.064 247.089C263.559 245.631 268.492 246.737 271.934 249.974C275.376 253.212 276.783 258.067 275.603 262.644C274.423 267.219 270.846 270.79 266.267 271.96C259.492 273.692 252.565 269.731 250.62 263.014C248.675 256.296 252.412 249.247 259.064 247.089Z" fill="black"/>
<path d="M261.814 255.664C263.898 254.992 266.138 256.107 266.859 258.175C267.579 260.244 266.518 262.509 264.467 263.277C263.097 263.791 261.556 263.523 260.441 262.576C259.326 261.629 258.811 260.151 259.097 258.717C259.381 257.281 260.421 256.113 261.814 255.664Z" fill="#FEFEFE"/>
<path d="M95.7914 46.463C98.2441 46.4895 100.743 46.8192 103.154 47.2565C124.295 51.0864 139.798 66.0604 140.737 88.0488C141.017 94.5969 137.269 106.887 141.015 112.121L141.305 112.522C147.778 121.573 161.362 132.773 169.612 140.974C162.243 148.895 154.583 156.575 147.038 164.332C137.387 154.912 128.555 143.358 118.211 134.858C116 133.041 114.545 132.435 111.621 132.69C107.151 133.667 102.689 134.679 98.089 134.693C86.9845 134.793 76.3086 130.412 68.476 122.541C58.4666 112.444 56.2201 100.478 56.2563 86.8604C65.1575 95.7765 73.8523 105.267 83.4359 113.437C90.9035 112.078 106.188 110.821 112.246 106.697C119.349 101.861 119.916 83.0816 121.376 74.7341C114.031 64.7749 104.195 55.5978 95.7914 46.463Z" fill="#FEFEFE"/>
<path d="M260.929 49.668C265.8 52.5175 270.881 58.8945 274.978 62.9518C268.728 71.7111 262.548 80.5197 256.436 89.3759C250.26 92.3532 242.696 93.6757 237.104 97.6828C227.643 104.463 219.462 115.125 211.32 123.578L155.157 181.809L150.761 186.359L144.228 179.447C157.313 167.422 169.435 154.075 181.81 141.324C198.418 124.528 214.89 107.597 231.222 90.5326L235.699 70.2978C243.641 63.0321 252.555 56.4567 260.929 49.668Z" fill="#FEFEFE"/>
</svg>

<svg xmlns="http://www.w3.org/2000/svg" width="330" height="330" fill="none" viewBox="0 0 330 330"><path fill="#000" d="M93.728 37.018c2.745-.129 5.829.456 8.553.88 15.018 2.34 28.909 9.324 37.947 21.883 10.609 14.745 10.695 30.357 8.036 47.477l27.827 27.142c8.885-9.34 42.476-40.827 46.789-49.93 2.649-5.591 3.032-13.362 4.797-19.458 6.997-6.613 25.302-23.153 33.482-26.082 1.089-.034 1.741.057 2.718.577 3.83 2.04 19.995 18.39 21.225 22.23-.233 3.859-18.335 30.334-21.631 33.628-6.413 6.41-16.874 5.985-23.905 11.768-4.813 3.959-8.99 9.539-13.329 14.076a2847 2847 0 0 1-31.74 32.806L259.67 218.8c8.022 8.027 18.959 16.756 25.356 26.038A27.7 27.7 0 0 1 290 260.697a28.7 28.7 0 0 1-8.773 20.311c-4.738 4.623-10.987 7.456-17.668 7.253-4.501-.137-8.785-1.629-12.549-4.061-12.052-7.786-38.15-38.506-49.688-50.689l-38.253-40.914c-1.445-1.53-2.038-1.57-4.044-1.608-3.006 4.154 7.543 10.665 6.248 16.677-.827 3.842-4.646 8.084-7.78 10.287-5.25 3.688-8.377.516-13.592-.372l-1.421 1.157c-1.233 3.597-.87 7.407-1.018 11.183-6.033 10.477-17.44 19.786-25.817 28.466-8.486 8.794-16.747 18.137-25.712 26.437-5.364 4.967-10.145 8.088-17.74 7.708-10.337-.517-18.487-8.696-24.986-15.995-4.943-5.552-8.694-11.471-8.156-19.161.294-4.199 1.651-8.672 4.053-12.15 4.823-6.986 47.11-50.42 54.12-55.075 4.399-2.921 11.172-.663 15.143-4.174.456-3.461-3.437-5.687-3.575-9.206-.103-2.628 1.891-4.706 3.579-6.465 15.72-16.375 20.003 2.159 26.971 2.073l.557-1.476c-8.558-10.031-18.103-19.434-27.168-29.021-3.205.779-6.526 1.403-9.82 1.634-14.042.987-27.34-2.928-37.998-12.307-13.773-12.123-17.185-27.437-18.24-44.906 2.55-3.126 5.967-8.34 9.83-9.8 5.733 1.716 23.685 21.674 29.222 27.103l22.453-4.225c.988-7.468 2.311-14.874 3.615-22.292-9.454-9.74-18.556-19.878-27.775-29.845 2.616-3.74 6.475-6.995 9.71-10.226"/><path fill="#fed100" d="M122.831 172.897c5.501.872 28.094 27.04 32.685 33.114-.074 1.609-.285 1.58-1.366 2.679-3.823 1.236-8.068-1.096-11.992-1.092-2.472.002-4.795.71-6.486 2.591-3.962 4.404-3.5 11.381-3.024 16.841-16.29 18.814-34.698 37.076-52.5 54.505-1.804.847-4.06 1.561-6.068 1.675-5.82.331-11.188-3.871-15.209-7.638-4.682-4.384-10.453-10.677-10.503-17.535-.027-3.751 1.817-7.031 4-9.96 4.455-5.97 10.608-11.025 15.865-16.325l34.184-34.406c6.797.146 10.85-.479 16.559-4.51 2.346-1.657 4.34-4.086 4.688-7.019.441-3.718-1.627-5.747-3.798-8.468.017-2.255 1.418-2.917 2.965-4.452"/><path fill="#000" d="M109.038 209.609c1.051.134 2.491.204 3.463.622 1.775.765 2.055 1.576 2.692 3.237-.102.573-.148 1.736-.396 2.215-3.073 5.919-39.894 42.268-47.72 50.077-1.281-.15-2.939-.492-3.998-1.252-1.629-1.169-1.56-2.174-1.645-3.972 2.68-6.967 39.727-43.381 47.604-50.927m9.166 17.095c1.28.414 2.863.802 3.856 1.747 1.309 1.247 1.124 2.114 1.253 3.82-1.926 6.135-37.167 41.287-43.51 46.369-.438-.11-.98-.231-1.419-.389-2.302-.834-3.145-1.849-4.049-3.952.668-5.094 37.281-40.955 43.869-47.595"/><path fill="#fefefe" d="M188.143 160.519q.166.141.327.287c18.388 16.681 35.602 35.502 53.21 53.095 10.279 10.272 27.467 25.299 35.826 36.642 2.233 3.031 3.581 6.622 3.695 10.409.136 4.527-1.683 8.809-4.832 12.027-4.504 4.603-9.056 5.749-15.318 5.809-3.037-.984-5.327-2.058-7.777-4.131-10.832-9.167-20.405-20.844-30.112-31.196l-56.563-60.535c7.287-7.355 14.729-14.609 21.544-22.407"/><path fill="#000" d="M259.064 247.089a12.954 12.954 0 1 1 7.993 24.643 12.954 12.954 0 0 1-7.993-24.643"/><path fill="#fefefe" d="M261.814 255.664a4.033 4.033 0 1 1 2.474 7.677 4.033 4.033 0 0 1-2.474-7.677M95.791 46.463c2.453.026 4.952.356 7.363.794 21.141 3.83 36.644 18.803 37.583 40.792.28 6.548-3.468 18.838.278 24.072l.29.401c6.473 9.051 20.057 20.251 28.307 28.452-7.369 7.921-15.029 15.601-22.574 23.358-9.651-9.42-18.483-20.974-28.827-29.474-2.211-1.817-3.666-2.423-6.59-2.168-4.47.977-8.932 1.989-13.532 2.003a41.25 41.25 0 0 1-29.613-12.152c-10.01-10.097-12.256-22.063-12.22-35.68 8.901 8.915 17.596 18.406 27.18 26.576 7.467-1.359 22.752-2.616 28.81-6.74 7.103-4.836 7.67-23.615 9.13-31.963-7.345-9.96-17.181-19.136-25.585-28.271m165.138 3.205c4.871 2.85 9.952 9.227 14.049 13.284q-9.375 13.14-18.542 26.424c-6.176 2.977-13.74 4.3-19.332 8.307-9.461 6.78-17.642 17.442-25.784 25.895l-56.163 58.231-4.396 4.55-6.533-6.912c13.085-12.025 25.207-25.372 37.582-38.123a4348 4348 0 0 0 49.412-50.791l4.477-20.235c7.942-7.266 16.856-13.841 25.23-20.63"/></svg>
